X:1
T:O dolc'anima
T:O dolc'Anima
T:Piero Benedetti
T:Source : Musische di P.Benedetti---Libro secondo---Venetia---R.Amadino---1613 Editor : André Vierendeels (30/05/15).
T:Notes : Original clefs : C1, F4 Editorial accidentals above the staff Figures in BC are notated in original print
T:b
C:Piero Benedetti
%%score 1 2
L:1/8
Q:1/4=120
M:4/4
K:F
V:1 treble nm="Soprano" snm="S"
V:2 bass nm="BC" snm="BC"
V:1
 d6 A2 | B6 AG | A8 | f6 ed | c4 c4 | z2 cd B2 cB | A4 A4 | z2 cd _e2 AA | A8 | G8 | z ABd ^F4 | %11
w: O dol-|c'A- ni- ma|mia,|dun- qu'e pur|ve- ro,|che can- gian- do pen-|sie- ro|per al- trui ab- ban-|do-|ni?|Se cer- ci'un cor|
 z AAA A2 B/G/A/B/ | c4 c4 | z dBA B4- | B3 B A/G/^F/E/ D/E/F/G/ | AB/c/ d2 d/B/c/A/ B/A/B/G/ | %16
w: che piu t'a- do- ro'et _ _ _|a- mi,|in- giu- sta- men-|* te bra- * * * * * * *||
 A8 | G8 |: c3 F F2 FG | A3 B/c/ A4 | z ABc d4- | dBcd _e4- | e d/c/ B2 A4 | %23
w: |mi.|Ma se cerchi bel- ta-|* * * de,|non mi- rar me,|_ non mi- rar- me|_ cor _ mi- o,|
 c2 GG B/c/d/c/ B/A/G/^F/ | G4 A4 | z d f>_e dB d>c | B3 d A4 | G8 :| %28
w: mi- ra te stes- * * * * * * *|* sa,|in que- sto vol- to,'in que- sto|cor im- pres-|sa.|
V:2
 G,4 ^F,4 | G,4 _E,4 |"^#" D,8 | B,,4 _E,4 | F,8 | C,4 G,4 |"^#" D,8 |"^b" C,4 C,4 | %8
"^4""^#" D,4 D,4 | G,,8 |"^#" D,8 |"^#" D,6 G,2 | F,8 | G,,4- G,, G,_E,D, |"^#" =B,,2 C,2 D,4- | %15
 D,8 |"^4""^#" D,4 D,4 |"^-natural" G,,8 |: F,,8 | F,,8 |"^#" D,4 z D,E,^F, | G,4 z B,,C,D, | %22
 _E,4 F,4 | C,4 G,4 |"^#" G,4 D,4 | B,,8 |"^4""^#" G,,2 =B,,2 D,2 D,2 |"^-natural" G,,8 :| %28

